packages/synapse-interface/assets/icons/usdc.svg

<svg fill="none" height="48" viewBox="0 0 48 48" width="48" xmlns="http://www.w3.org/2000/svg" xmlns:xlink="http://www.w3.org/1999/xlink"><clipPath id="a"><path d="m0 0h48v48h-48z"/></clipPath><g clip-path="url(#a)"><path d="m24 48c13.3001 0 24-10.6999 24-24s-10.6999-24-24-24-24 10.6999-24 24 10.6999 24 24 24z" fill="#2775ca"/><g fill="#fff"><path d="m30.6 27.7999c0-3.4999-2.1-4.6999-6.3-5.1998-3-.4001-3.6-1.2-3.6-2.6002s1.0001-2.2999 3-2.2999c1.8 0 2.8001.6 3.3 2.1.1001.3.4001.4999.7001.4999h1.5998c.4001 0 .7001-.3.7001-.6998v-.1001c-.4001-2.2001-2.2001-3.9-4.5-4.0999v-2.4c0-.4001-.3-.7001-.7999-.8002h-1.5c-.4001 0-.7001.3-.8002.8002v2.2999c-3 .4001-4.8998 2.4-4.8998 4.9001 0 3.3 1.9999 4.5998 6.1999 5.1 2.8001.4999 3.7001 1.0999 3.7001 2.7 0 1.6-1.4002 2.7-3.3 2.7-2.6002 0-3.5002-1.1002-3.8002-2.6002-.0998-.3998-.3998-.6-.6998-.6h-1.7002c-.3998 0-.6998.3-.6998.7001v.1001c.3998 2.4998 1.9999 4.2998 5.2999 4.8v2.4c0 .3998.3.6998.7999.7999h1.5c.4001 0 .7001-.3.8002-.7999v-2.4c3-.5002 4.9999-2.6002 4.9999-5.3002z"/><path d="m18.9 38.2999c-7.8-2.7998-11.80008-11.4998-8.8999-19.2 1.5-4.2 4.8-7.3999 8.8999-8.8999.4001-.1999.6-.49994.6-1.0001v-1.39992c0-.40008-.1999-.70008-.6-.79992-.1001 0-.3 0-.4001.09984-9.4999 3-14.69998 13.1002-11.69998 22.6001 1.8 5.5999 6.10008 9.9 11.69998 11.7.4001.1999.8002 0 .9-.4001.1001-.0998.1001-.1999.1001-.3998v-1.4002c0-.3-.3-.6998-.6-.9zm10.6001-31.2c-.4001-.19992-.8002 0-.9.40008-.1001.10008-.1001.19992-.1001.40008v1.39992c0 .40008.3.79992.6 1.00012 7.8 2.7998 11.8001 11.4998 8.8999 19.2-1.5 4.2-4.8 7.3999-8.8999 8.8999-.4001.1999-.6.4999-.6 1.0001v1.3999c0 .4001.1999.7001.6.7999.1001 0 .3 0 .4001-.0998 9.4999-3 14.7-13.1002 11.7-22.6001-1.8-5.7-6.2002-10.0001-11.7-11.8001z"/></g></g></svg>

<svg width="48" height="48" viewBox="0 0 48 48" fill="none" xmlns="http://www.w3.org/2000/svg">
<g clip-path="url(#clip0_1275_22890)">
<path d="M24 48C37.3001 48 48 37.3001 48 24C48 10.6999 37.3001 0 24 0C10.6999 0 0 10.6999 0 24C0 37.3001 10.6999 48 24 48Z" fill="#2775CA"/>
<path d="M30.6 27.7999C30.6 24.3 28.5 23.1 24.3 22.6001C21.3 22.2 20.7 21.4001 20.7 19.9999C20.7 18.5997 21.7001 17.7 23.7 17.7C25.5 17.7 26.5001 18.3 27 19.8C27.1001 20.1 27.4001 20.2999 27.7001 20.2999H29.2999C29.7 20.2999 30 19.9999 30 19.6001V19.5C29.5999 17.2999 27.7999 15.6 25.5 15.4001V13.0001C25.5 12.6 25.2 12.3 24.7001 12.1999H23.2001C22.8 12.1999 22.5 12.4999 22.3999 13.0001V15.3C19.3999 15.7001 17.5001 17.7 17.5001 20.2001C17.5001 23.5001 19.5 24.7999 23.7 25.3001C26.5001 25.8 27.4001 26.4 27.4001 28.0001C27.4001 29.6001 25.9999 30.7001 24.1001 30.7001C21.4999 30.7001 20.5999 29.5999 20.2999 28.0999C20.2001 27.7001 19.9001 27.4999 19.6001 27.4999H17.8999C17.5001 27.4999 17.2001 27.7999 17.2001 28.2V28.3001C17.5999 30.7999 19.2 32.5999 22.5 33.1001V35.5001C22.5 35.8999 22.8 36.1999 23.2999 36.3H24.7999C25.2 36.3 25.5 36 25.6001 35.5001V33.1001C28.6001 32.5999 30.6 30.4999 30.6 27.7999V27.7999Z" fill="white"/>
<path d="M18.9 38.2999C11.1 35.5001 7.09992 26.8001 10.0001 19.0999C11.5001 14.8999 14.8001 11.7 18.9 10.2C19.3001 10.0001 19.5 9.70006 19.5 9.1999V7.79998C19.5 7.3999 19.3001 7.0999 18.9 7.00006C18.7999 7.00006 18.6 7.00006 18.4999 7.0999C9 10.0999 3.79992 20.2001 6.79992 29.7C8.59992 35.2999 12.9 39.6 18.4999 41.4C18.9 41.5999 19.3001 41.4 19.3999 40.9999C19.5 40.9001 19.5 40.8 19.5 40.6001V39.1999C19.5 38.8999 19.2 38.5001 18.9 38.2999ZM29.5001 7.0999C29.1 6.89998 28.6999 7.0999 28.6001 7.49998C28.5 7.60006 28.5 7.6999 28.5 7.90006V9.29998C28.5 9.70006 28.8 10.0999 29.1 10.3001C36.9 13.0999 40.9001 21.7999 37.9999 29.5001C36.4999 33.7001 33.1999 36.9 29.1 38.4C28.6999 38.5999 28.5 38.8999 28.5 39.4001V40.8C28.5 41.2001 28.6999 41.5001 29.1 41.5999C29.2001 41.5999 29.4 41.5999 29.5001 41.5001C39 38.5001 44.2001 28.3999 41.2001 18.9C39.4001 13.2 34.9999 8.8999 29.5001 7.0999V7.0999Z" fill="white"/>
</g>
<defs>
<clipPath id="clip0_1275_22890">
<rect width="48" height="48" fill="white"/>
</clipPath>
</defs>
</svg>
